public/icons/tokens/avax.svg

<svg width="1503" height="1504" fill="none" xmlns="http://www.w3.org/2000/svg"><path fill="#fff" d="M287 258h928v844H287z"/><path fill-rule="evenodd" clip-rule="evenodd" d="M1502.5 752c0 414.77-336.23 751-751 751-414.766 0-751-336.23-751-751C.5 337.234 336.734 1 751.5 1c414.77 0 751 336.234 751 751Zm-963.812 298.86H392.94c-30.626 0-45.754 0-54.978-5.9-9.963-6.46-16.051-17.16-16.789-28.97-.554-10.88 7.011-24.168 22.139-50.735l359.87-634.32c15.313-26.936 23.061-40.404 32.839-45.385 10.516-5.35 23.062-5.35 33.578 0 9.778 4.981 17.527 18.449 32.839 45.385l73.982 129.144.377.659c16.539 28.897 24.926 43.551 28.588 58.931a109.562 109.562 0 0 1 0 51.289c-3.69 15.497-11.992 30.257-28.781 59.591L687.573 964.702l-.489.856c-16.648 29.135-25.085 43.902-36.778 55.042-12.73 12.18-28.043 21.03-44.832 26.02-15.313 4.24-32.47 4.24-66.786 4.24Zm368.062 0h208.84c30.81 0 46.31 0 55.54-6.08 9.96-6.46 16.23-17.35 16.79-29.15.53-10.53-6.87-23.3-21.37-48.323-.5-.852-1-1.719-1.51-2.601L1060.43 785.75l-1.19-2.015c-14.7-24.858-22.12-37.411-31.65-42.263a36.734 36.734 0 0 0-33.391 0c-9.594 4.981-17.342 18.08-32.655 44.462L857.306 964.891l-.357.616c-15.259 26.34-22.885 39.503-22.335 50.303.738 11.81 6.826 22.69 16.788 29.15 9.041 5.9 24.538 5.9 55.348 5.9Z" fill="#E84142"/></svg>

<svg width="1503" height="1504" viewBox="0 0 1503 1504" fill="none" xmlns="http://www.w3.org/2000/svg">
<rect x="287" y="258" width="928" height="844" fill="white"/>
<path fill-rule="evenodd" clip-rule="evenodd" d="M1502.5 752C1502.5 1166.77 1166.27 1503 751.5 1503C336.734 1503 0.5 1166.77 0.5 752C0.5 337.234 336.734 1 751.5 1C1166.27 1 1502.5 337.234 1502.5 752ZM538.688 1050.86H392.94C362.314 1050.86 347.186 1050.86 337.962 1044.96C327.999 1038.5 321.911 1027.8 321.173 1015.99C320.619 1005.11 328.184 991.822 343.312 965.255L703.182 330.935C718.495 303.999 726.243 290.531 736.021 285.55C746.537 280.2 759.083 280.2 769.599 285.55C779.377 290.531 787.126 303.999 802.438 330.935L876.42 460.079L876.797 460.738C893.336 489.635 901.723 504.289 905.385 519.669C909.443 536.458 909.443 554.169 905.385 570.958C901.695 586.455 893.393 601.215 876.604 630.549L687.573 964.702L687.084 965.558C670.436 994.693 661.999 1009.46 650.306 1020.6C637.576 1032.78 622.263 1041.63 605.474 1046.62C590.161 1050.86 573.004 1050.86 538.688 1050.86ZM906.75 1050.86H1115.59C1146.4 1050.86 1161.9 1050.86 1171.13 1044.78C1181.09 1038.32 1187.36 1027.43 1187.92 1015.63C1188.45 1005.1 1181.05 992.33 1166.55 967.307C1166.05 966.455 1165.55 965.588 1165.04 964.706L1060.43 785.75L1059.24 783.735C1044.54 758.877 1037.12 746.324 1027.59 741.472C1017.08 736.121 1004.71 736.121 994.199 741.472C984.605 746.453 976.857 759.552 961.544 785.934L857.306 964.891L856.949 965.507C841.69 991.847 834.064 1005.01 834.614 1015.81C835.352 1027.62 841.44 1038.5 851.402 1044.96C860.443 1050.86 875.94 1050.86 906.75 1050.86Z" fill="#E84142"/>
</svg>
